X:24
T:Polygon THO3.024, The
O:England;London
M:6/8
L:1/8
Z:vmp. Peter Dunk 2011.from a transcription by Fynn Titford-Mock 2006-9
B:Thompson's Compleat Collection of 200 Favourite Country Dances Vol. III.1765-72
Q:3/8=100
K:D
f/g/|afd ecA|dBG {G}F2 E|DFG Bgf|efd {d}c2 f/g/|afd ecA|dBG {G}F2 E|DFG Bgf|edc d3:|
|:Ace gec|Adf afd|Ace gec|Bfd {d}c3|Ace gec|Adf afd|AcA Bgf|edc d3:|

